X: 22879
T: Lark On The Strand, The
R: jig
M: 6/8
K: Gmajor
|:GED G2A|BAG ABd|edd gdd|edB dBA|
GED G2A|BAG ABd|edd gdB|AGF G3:|
|:gfg efg|aed edB|Add edd|fdd edB|
g3 aga|bag fed|Add ede|fd^c d3:|

